public/assets/img/logo_demo.svg

<svg height="79" viewBox="0 0 79 79" width="79" xmlns="http://www.w3.org/2000/svg" xmlns:xlink="http://www.w3.org/1999/xlink"><linearGradient id="a" x1="0%" x2="101.999998%" y1="0%" y2="100.999999%"><stop offset="0" stop-color="#f00"/><stop offset=".222046604" stop-color="#ff0"/><stop offset=".412707731" stop-color="#008000"/><stop offset=".604475253" stop-color="#0ff"/><stop offset=".808232478" stop-color="#00f"/><stop offset="1" stop-color="#ee82ee"/></linearGradient><g fill="none" fill-rule="evenodd"><path d="m0 0h79v79h-79z" fill="#fff" fill-rule="evenodd"/><path d="m1 1h77v77h-77z" stroke="#000" stroke-width="2"/><text fill="#191919" font-family="AGaramondPro-Regular, Adobe Garamond Pro" font-size="55"><tspan x="12" y="54">P</tspan></text><path d="m32.243 45.749 4.416-1.035c.483-3.933 1.311-8.556 1.794-9.936 1.725-1.656 4.554-3.519 6.279-4.278-1.794-.621-5.451-1.449-9.66-2.139-1.932-.276-2.553-1.242-2.967-2.553-.69-2.07-1.242-4.14-1.725-6.348 10.488-.138 23.805 1.173 28.98 5.865 4.692 4.209 8.763 12.696 9.039 16.284.207 2.691-.138 4.209-2.622 6.279-5.658 4.692-15.939 6.762-21.735 7.383l-1.242-1.38-1.587 8.004 1.725 1.587-.483 2.139-5.934 2.691-.966-.552c-.069-4.83-.138-13.8.207-16.698l-.552-.276zm11.592-3.036c4.692-1.38 10.833-3.519 13.731-5.52-2.76-2.553-8.349-5.244-11.937-6.348-.483 4.14-1.311 9.108-1.794 11.868z" fill="url(#a)"/><g transform="matrix(.70710678 -.70710678 .70710678 .70710678 -23 54.781746)"><path d="m0 0h109.124892v16.349242h-109.124892z" fill="url(#a)"/><text fill="#191919" font-family="AGaramondPro-Bold, Adobe Garamond Pro" font-size="12" font-weight="bold"><tspan x="42.326" y="12">demo</tspan></text></g></g></svg>

<?xml version="1.0" encoding="UTF-8"?>
<svg width="79px" height="79px" viewBox="0 0 79 79" version="1.1" xmlns="http://www.w3.org/2000/svg" xmlns:xlink="http://www.w3.org/1999/xlink">
    <!-- Generator: Sketch 49 (51002) - http://www.bohemiancoding.com/sketch -->
    <title>logo_demo</title>
    <desc>Created with Sketch.</desc>
    <defs>
        <rect id="path-1" x="0" y="0" width="79" height="79"></rect>
        <linearGradient x1="0%" y1="0%" x2="101.999998%" y2="100.999999%" id="linearGradient-2">
            <stop stop-color="#FF0000" offset="0%"></stop>
            <stop stop-color="#FFFF00" offset="22.2046604%"></stop>
            <stop stop-color="#008000" offset="41.2707731%"></stop>
            <stop stop-color="#00FFFF" offset="60.4475253%"></stop>
            <stop stop-color="#0000FF" offset="80.8232478%"></stop>
            <stop stop-color="#EE82EE" offset="100%"></stop>
        </linearGradient>
    </defs>
    <g id="logo_demo" stroke="none" stroke-width="1" fill="none" fill-rule="evenodd">
        <g id="Rectangle-8">
            <use fill="#FFFFFF" fill-rule="evenodd" xlink:href="#path-1"></use>
            <rect stroke="#000000" stroke-width="2" x="1" y="1" width="77" height="77"></rect>
        </g>
        <text id="P" font-family="AGaramondPro-Regular, Adobe Garamond Pro" font-size="55" font-weight="normal" fill="#191919">
            <tspan x="12" y="54">P</tspan>
        </text>
        <path d="M32.243,45.749 L36.659,44.714 C37.142,40.781 37.97,36.158 38.453,34.778 C40.178,33.122 43.007,31.259 44.732,30.5 C42.938,29.879 39.281,29.051 35.072,28.361 C33.14,28.085 32.519,27.119 32.105,25.808 C31.415,23.738 30.863,21.668 30.38,19.46 C40.868,19.322 54.185,20.633 59.36,25.325 C64.052,29.534 68.123,38.021 68.399,41.609 C68.606,44.3 68.261,45.818 65.777,47.888 C60.119,52.58 49.838,54.65 44.042,55.271 L42.8,53.891 L41.213,61.895 L42.938,63.482 L42.455,65.621 L36.521,68.312 L35.555,67.76 C35.486,62.93 35.417,53.96 35.762,51.062 L35.21,50.786 L32.243,45.749 Z M43.835,42.713 C48.527,41.333 54.668,39.194 57.566,37.193 C54.806,34.64 49.217,31.949 45.629,30.845 C45.146,34.985 44.318,39.953 43.835,42.713 Z" id="P" fill="url(#linearGradient-2)"></path>
        <g id="Group" transform="translate(21.901281, 21.901281) rotate(-45.000000) translate(-21.901281, -21.901281) translate(-33.098719, 13.401281)">
            <rect id="Rectangle-4" fill="url(#linearGradient-2)" x="0" y="0" width="109.124892" height="16.3492424"></rect>
            <text id="demo" font-family="AGaramondPro-Bold, Adobe Garamond Pro" font-size="12" font-weight="bold" fill="#191919">
                <tspan x="42.326" y="12">demo</tspan>
            </text>
        </g>
    </g>
</svg>
